16x16/apps/gargoyle-house.svg

<svg height="16" width="16" xmlns="http://www.w3.org/2000/svg"><path d="m15 15.28v-8.84l-1.14-1.126c-.28-.276-2.012-1.782-2.393-1.854l-3.361-2.451-3.794 2.564c-.324.22-1.974 1.569-2.245 1.855l-1.067 1.126v8.726c0 .399.312.72.7.72h12.6c.388 0 .7-.321.7-.72z" fill="#f4f4f7"/><path d="m1 6h14v1h-14z" opacity=".15"/><path d="m2.507 1h1c.277 0 .5.223.5.5v3.6c0 .277-.223.5-.5.5h-1a.499.499 0 0 1 -.5-.5v-3.6c0-.277.223-.5.5-.5z" fill="#4f4f4f"/><rect fill="#956a42" height="6" rx=".6" ry=".563" width="4" x="2" y="9"/><path d="m10.042 9c-.57 0-1.042.472-1.042 1.042v2.916c0 .57.472 1.042 1.042 1.042h2.916c.57 0 1.042-.472 1.042-1.042v-2.916c0-.57-.472-1.042-1.042-1.042z" fill="#956a42"/><path d="m10.188 9.998a.18.18 0 0 0 -.188.188v2.626c0 .11.077.188.188.188h2.625a.18.18 0 0 0 .187-.188v-2.626a.18.18 0 0 0 -.187-.188z" fill="#c2eeff"/><circle cx="4.5" cy="12.5" fill="#f4f4f7" r=".5"/><path d="m2.407 5.23a8.792 8.792 0 0 0 -.502.438l-1.097 1.126v-.39h1.599z" opacity=".05"/><path d="m4.005 3.562c-.37.272-1.079.832-1.598 1.264v1.174h1.598z" opacity=".15"/><path d="m6 2.494-1.741.915c-.047.024-.175.103-.259.153v2.438h2z" opacity=".05"/><path d="m8 1.442-2 1.052v3.506h2z" opacity=".15"/><path d="m9.136 1.344-1.136.598v4.058h2v-4.165z" opacity=".05"/><path d="m10 2.835v3.165h2v-2.03z" opacity=".15"/><path d="m12 3.97v2.03h1.598v-.971c-.188-.125-.347-.217-.433-.233z" opacity=".05"/><path d="m13.594 5.179v1.225h1.598v.276l-1.172-1.126c-.068-.066-.23-.207-.426-.375z" opacity=".05"/><path d="m8 1-7 6m7-6 7 6" fill="none" stroke="#5d5d5d" stroke-linecap="round" stroke-linejoin="round" stroke-width="2"/></svg>

<svg height="16" width="16" xmlns="http://www.w3.org/2000/svg">
    <path d="M15 15.28V6.44l-1.14-1.126c-.28-.276-2.012-1.782-2.393-1.854L8.106 1.009 4.312 3.573c-.324.22-1.974 1.569-2.245 1.855L1 6.554v8.726c0 .399.312.72.7.72h12.6c.388 0 .7-.321.7-.72z" fill="#f4f4f7"/>
    <path d="M1 6h14v1H1z" opacity=".15"/>
    <path d="M2.507 1h1c.277 0 .5.223.5.5v3.6c0 .277-.223.5-.5.5h-1a.499.499 0 0 1-.5-.5V1.5c0-.277.223-.5.5-.5z" fill="#4f4f4f"/>
    <rect fill="#956a42" height="6" rx=".6" ry=".563" width="4" x="2" y="9"/>
    <path d="M10.042 9A1.05 1.05 0 0 0 9 10.042v2.916c0 .57.472 1.042 1.042 1.042h2.916A1.05 1.05 0 0 0 14 12.958v-2.916A1.05 1.05 0 0 0 12.958 9z" fill="#956a42"/>
    <path d="M10.188 9.998a.18.18 0 0 0-.188.188v2.626c0 .11.077.188.188.188h2.625a.18.18 0 0 0 .187-.188v-2.626a.18.18 0 0 0-.187-.188z" fill="#c2eeff"/>
    <circle cx="4.5" cy="12.5" fill="#f4f4f7" r=".5"/>
    <path d="M2.407 5.23a8.792 8.792 0 0 0-.502.438L.808 6.794v-.39h1.599z" opacity=".05"/>
    <path d="M4.005 3.562c-.37.272-1.079.832-1.598 1.264V6h1.598z" opacity=".15"/>
    <path d="m6 2.494-1.741.915c-.047.024-.175.103-.259.153V6h2z" opacity=".05"/>
    <path d="M8 1.442 6 2.494V6h2z" opacity=".15"/>
    <path d="M9.136 1.344 8 1.942V6h2V1.835z" opacity=".05"/>
    <path d="M10 2.835V6h2V3.97z" opacity=".15"/>
    <path d="M12 3.97V6h1.598v-.971c-.188-.125-.347-.217-.433-.233z" opacity=".05"/>
    <path d="M13.594 5.179v1.225h1.598v.276L14.02 5.554c-.068-.066-.23-.207-.426-.375z" opacity=".05"/>
    <path d="M8 1 1 7m7-6 7 6" fill="none" stroke="#5d5d5d" stroke-linecap="round" stroke-linejoin="round" stroke-width="2"/>
</svg>
